X: 21802
Q: "Slow."
M: C
L: 1/8
K: F
c>dc>A ~d>ef>{e}d | c>AG>A F2zc |\
f>efg fe{e}dc | d>cfA c2zc |\
f>efg fe{e}dc | d>cBA d2 z(3(c/e/g/) |\
f>e{e}dc deHf>{gag2f2e2}d !p!| "^>"c>AG>A F2z |]


